X:230
T:Coleman's Barn Dance
M: 4/4
L: 1/8
R:barn dance
K:G
|:D2 DE G2 GA| B2BA Bc d2|dBge dBAB|GEED EAGE|
|(3DDD DE G2 GA| B2BA Bc d2|dBge dBAB|G2 {f}g2 {f}g2 z2:|
|b2 b2 a2 a2|gage d2Bc|dBge dBAB |GEED E2 ga|
|(3bbb b2 (3aaa a2|gage d2Bc|dBge dBAB |G2 {f}g2 {f}g2 z2|
|b2 b2 a2 a2|gage d2Bc|dBge dBAB |GEED EAGE|
|(3DDD DE G2 GA| B2BA Bc d2|dBge dBAB|G2 {f}g2 {f}g2 z2||
